svg/u1f4c6.svg

<svg viewBox="0 0 128 128" xmlns="http://www.w3.org/2000/svg">
  <g>
    <path d="M6.81,45.78v64.74c0,3.12,2.9,5.21,6.32,7.61c3.9,2.74,8.48,5.25,10.17,5.25l93.55,0.62 c2.4,0,4.34-2.94,4.34-5.34V45.78H6.81z" fill="#BDBDBD"/>
    <linearGradient id="SVGID_1_" gradientUnits="userSpaceOnUse" x1="117.0497" x2="117.0497" y1="74.7041" y2="114.6335">
      <stop offset="0.3374" stop-color="#616161"/>
      <stop offset="1" stop-color="#616161" stop-opacity="0"/>
    </linearGradient>
    <polygon points="121.19,118.66 112.91,110.15 112.91,43.92 121.19,43.73 " opacity="0.29" fill="url(#SVGID_1_)"/>
    <path d="M121.19,51.32l-6.46-4.05L104.62,4c0,0,0.6,0,5.44,0c9.65,0,11.13,5.57,11.13,7.47V51.32z" fill="#C62828"/>
    <path d="M9.75,45.78v62.68c0,2.7,2.19,4.88,4.88,4.88h94.85c2.7,0,5.22-2.01,5.22-4.71v-5.24V45.78H9.75z" fill="#FAFAFA"/>
    <path d="M114.73,47.27H6.81V9.75C6.81,6.57,9.38,4,12.56,4h96.59c3.19,0,5.77,2.59,5.75,5.78L114.73,47.27z" fill="#F44336"/>
    <g>
      <path d="M41.95,15.46h4.12V29.3c0,1.27-0.28,2.4-0.84,3.37c-0.56,0.97-1.36,1.73-2.38,2.26 c-1.03,0.53-2.18,0.8-3.47,0.8c-2.11,0-3.76-0.54-4.94-1.61c-1.18-1.07-1.77-2.6-1.77-4.56h4.15c0,0.98,0.21,1.7,0.62,2.17 c0.41,0.47,1.06,0.7,1.95,0.7c0.79,0,1.41-0.27,1.88-0.81c0.47-0.54,0.7-1.31,0.7-2.31V15.46z" fill="#FFFFFF"/>
      <path d="M58.23,33.94c-0.98,1.19-2.33,1.78-4.06,1.78c-1.59,0-2.81-0.46-3.64-1.37 c-0.84-0.91-1.27-2.26-1.28-4.02V20.6h3.97v9.61c0,1.55,0.7,2.32,2.11,2.32c1.35,0,2.27-0.47,2.77-1.4V20.6h3.98v14.85h-3.73 L58.23,33.94z" fill="#FFFFFF"/>
      <path d="M69.25,35.45h-3.98V14.37h3.98V35.45z" fill="#FFFFFF"/>
      <path d="M78.06,29.83l2.75-9.24h4.26l-5.97,17.16l-0.33,0.78c-0.89,1.94-2.35,2.91-4.39,2.91 c-0.58,0-1.16-0.09-1.76-0.26v-3.01l0.6,0.01c0.75,0,1.31-0.11,1.68-0.34c0.37-0.23,0.66-0.61,0.87-1.14l0.47-1.22l-5.2-14.89 h4.27L78.06,29.83z" fill="#FFFFFF"/>
    </g>
    <g>
      <path d="M51.58,102.31H43V69.26l-10.24,3.17v-6.97l17.89-6.41h0.92V102.31z"/>
      <path d="M91.95,63.9l-16.7,38.41h-9.05l16.73-36.28H61.45v-6.91h30.5V63.9z"/>
    </g>
    <polygon points="114.7,52.24 9.75,52.35 9.75,47.27 114.7,47.27 " opacity="0.29" fill="#616161"/>
    <g>
      <g>
        <circle cx="22.8" cy="17.74" r="7.1" fill="#606060"/>
        <circle cx="20.44" cy="15.39" r="7.1" fill="#94D1E0"/>
        <path d="M21.05,12.45c-0.16,0.85-0.7,1.57-1.32,2.18c-0.74,0.72-1.61,1.32-2.59,1.65 c-0.58,0.2-1.25,0.28-1.76-0.06c-1.41-0.95-0.28-4.52,0.79-5.47C17.8,9.31,21.61,9.58,21.05,12.45z" fill="#C9EFF2"/>
      </g>
      <g>
        <circle cx="101.3" cy="17.74" r="7.1" fill="#606060"/>
        <circle cx="98.95" cy="15.39" r="7.1" fill="#94D1E0"/>
        <path d="M99.56,12.45c-0.16,0.85-0.7,1.57-1.32,2.18c-0.74,0.72-1.61,1.32-2.59,1.65 c-0.58,0.2-1.25,0.28-1.76-0.06c-1.41-0.95-0.28-4.52,0.79-5.47C96.31,9.31,100.11,9.58,99.56,12.45z" fill="#C9EFF2"/>
      </g>
    </g>
    <path d="M103.71,118.74c-3.18,0.39-6.36,0.56-9.54,0.84c-3.18,0.2-6.36,0.38-9.54,0.5 c-3.18,0.16-6.36,0.19-9.54,0.29l-9.54,0.09l-9.54-0.1c-3.18-0.09-6.36-0.13-9.54-0.29c-3.18-0.12-6.36-0.3-9.54-0.5 c-3.18-0.28-6.36-0.45-9.54-0.84v-0.2l38.15-0.1l38.15,0.1V118.74z" fill="#757575"/>
    <path d="M84.5,113.34h25.32c2.7,0,4.88-2.19,4.88-4.88l0-18.43c0,0-5.5,7.64-13.83,13.92 S84.5,113.34,84.5,113.34z" fill="#757575"/>
    <path d="M107.17,104.31c7.72-9.09,7.53-14.27,7.53-14.27s-2.23,3.14-9.24,3.85 c-2.47,0.25-6.01-0.7-8.62-1.57c-1.57-0.52-3.2,0.6-3.25,2.24c-0.07,2.11-0.42,5.07-1.55,8.59c-1.88,5.88-7.55,10.2-7.55,10.2 S98.54,114.46,107.17,104.31z" fill="#BDBDBD"/>
  </g>
</svg>

<svg viewBox="0 0 128 128" xmlns="http://www.w3.org/2000/svg">
  <defs>
    <linearGradient id="SVGID_1_" gradientUnits="userSpaceOnUse" x1="117.0497" x2="117.0497" y1="74.7041" y2="114.6335">
      <stop offset="0.3374" stop-color="#616161"/>
      <stop offset="1" stop-color="#616161" stop-opacity="0"/>
    </linearGradient>
  </defs>
  <path d="M6.81,45.78 L6.81,110.52 C6.81,113.64 9.71,115.73 13.13,118.13 C17.03,120.87 21.61,123.38 23.3,123.38 L116.85,124 C119.25,124 121.19,121.06 121.19,118.66 L121.19,45.78 L6.81,45.78 Z" fill="#BDBDBD"/>
  <path d="M121.19,118.66 L112.91,110.15 L112.91,43.92 L121.19,43.73 Z" fill="url(#SVGID_1_)" opacity="0.29"/>
  <path d="M121.19,51.32 L114.73,47.27 L104.62,4 C104.62,4 105.22,4 110.06,4 C119.71,4 121.19,9.57 121.19,11.47 L121.19,51.32 Z" fill="#C62828"/>
  <path d="M9.75,45.78 L9.75,108.46 C9.75,111.16 11.94,113.34 14.63,113.34 L109.48,113.34 C112.18,113.34 114.7,111.33 114.7,108.63 L114.7,103.39 L114.7,45.78 L9.75,45.78 Z" fill="#FAFAFA"/>
  <path d="M114.73,47.27 L6.81,47.27 L6.81,9.75 C6.81,6.57 9.38,4 12.56,4 L109.15,4 C112.34,4 114.92,6.59 114.9,9.78 L114.73,47.27 Z" fill="#F44336"/>
  <path d="M41.95,15.46 L46.07,15.46 L46.07,29.3 C46.07,30.57 45.79,31.7 45.23,32.67 C44.67,33.64 43.87,34.4 42.85,34.93 C41.82,35.46 40.67,35.73 39.38,35.73 C37.27,35.73 35.62,35.19 34.44,34.12 C33.26,33.05 32.67,31.52 32.67,29.56 L36.82,29.56 C36.82,30.54 37.03,31.26 37.44,31.73 C37.85,32.2 38.5,32.43 39.39,32.43 C40.18,32.43 40.8,32.16 41.27,31.62 C41.74,31.08 41.97,30.31 41.97,29.31 L41.97,15.46 Z" fill="#FFFFFF"/>
  <path d="M58.23,33.94 C57.25,35.13 55.9,35.72 54.17,35.72 C52.58,35.72 51.36,35.26 50.53,34.35 C49.69,33.44 49.26,32.09 49.25,30.33 L49.25,20.6 L53.22,20.6 L53.22,30.21 C53.22,31.76 53.92,32.53 55.33,32.53 C56.68,32.53 57.6,32.06 58.1,31.13 L58.1,20.6 L62.08,20.6 L62.08,35.45 L58.35,35.45 L58.23,33.94 Z" fill="#FFFFFF"/>
  <path d="M69.25,35.45 L65.27,35.45 L65.27,14.37 L69.25,14.37 L69.25,35.45 Z" fill="#FFFFFF"/>
  <path d="M78.06,29.83 L80.81,20.59 L85.07,20.59 L79.1,37.75 L78.77,38.53 C77.88,40.47 76.42,41.44 74.38,41.44 C73.8,41.44 73.22,41.35 72.62,41.18 L72.62,38.17 L73.22,38.18 C73.97,38.18 74.53,38.07 74.9,37.84 C75.27,37.61 75.56,37.23 75.77,36.7 L76.24,35.48 L71.04,20.59 L75.31,20.59 L78.06,29.83 Z" fill="#FFFFFF"/>
  <path d="M51.58,102.31 L43,102.31 L43,69.26 L32.76,72.43 L32.76,65.46 L50.65,59.05 L51.57,59.05 L51.57,102.31 Z"/>
  <path d="M91.95,63.9 L75.25,102.31 L66.2,102.31 L82.93,66.03 L61.45,66.03 L61.45,59.12 L91.95,59.12 L91.95,63.9 Z"/>
  <path d="M114.7,52.24 L9.75,52.35 L9.75,47.27 L114.7,47.27 Z" fill="#616161" opacity="0.29"/>
  <path d="M29.9,17.74 A7.1 7.1 0 1 1 15.7,17.74 A7.1 7.1 0 1 1 29.9,17.74 Z" fill="#606060"/>
  <path d="M27.54,15.39 A7.1 7.1 0 1 1 13.34,15.39 A7.1 7.1 0 1 1 27.54,15.39 Z" fill="#94D1E0"/>
  <path d="M21.05,12.45 C20.89,13.3 20.35,14.02 19.73,14.63 C18.99,15.35 18.12,15.95 17.14,16.28 C16.56,16.48 15.89,16.56 15.38,16.22 C13.97,15.27 15.1,11.7 16.17,10.75 C17.8,9.31 21.61,9.58 21.05,12.45 Z" fill="#C9EFF2"/>
  <path d="M108.4,17.74 A7.1 7.1 0 1 1 94.2,17.74 A7.1 7.1 0 1 1 108.4,17.74 Z" fill="#606060"/>
  <path d="M106.05,15.39 A7.1 7.1 0 1 1 91.85,15.39 A7.1 7.1 0 1 1 106.05,15.39 Z" fill="#94D1E0"/>
  <path d="M99.56,12.45 C99.4,13.3 98.86,14.02 98.24,14.63 C97.5,15.35 96.63,15.95 95.65,16.28 C95.07,16.48 94.4,16.56 93.89,16.22 C92.48,15.27 93.61,11.7 94.68,10.75 C96.31,9.31 100.11,9.58 99.56,12.45 Z" fill="#C9EFF2"/>
  <path d="M103.71,118.74 C100.53,119.13 97.35,119.3 94.17,119.58 C90.99,119.78 87.81,119.96 84.63,120.08 C81.45,120.24 78.27,120.27 75.09,120.37 L65.55,120.46 L56.01,120.36 C52.83,120.27 49.65,120.23 46.47,120.07 C43.29,119.95 40.11,119.77 36.93,119.57 C33.75,119.29 30.57,119.12 27.39,118.73 L27.39,118.53 L65.54,118.43 L103.69,118.53 L103.69,118.74 Z" fill="#757575"/>
  <path d="M84.5,113.34 L109.82,113.34 C112.52,113.34 114.7,111.15 114.7,108.46 L114.7,90.03 C114.7,90.03 109.2,97.67 100.87,103.95 C92.54,110.23 84.5,113.34 84.5,113.34 Z" fill="#757575"/>
  <path d="M107.17,104.31 C114.89,95.22 114.7,90.04 114.7,90.04 C114.7,90.04 112.47,93.18 105.46,93.89 C102.99,94.14 99.45,93.19 96.84,92.32 C95.27,91.8 93.64,92.92 93.59,94.56 C93.52,96.67 93.17,99.63 92.04,103.15 C90.16,109.03 84.49,113.35 84.49,113.35 C84.49,113.35 98.54,114.46 107.17,104.31 Z" fill="#BDBDBD"/>
</svg>
